!!!COM: Stadler, Maximilian
!!!CDT: 1748///-1833///
!!!COA: Haydn, Joseph
!!!OTL@@IT: Gioco filarmonico
!!!OTL@EN: Philharmonic Joke
!!!OTA@@IT: o sia maniera facile per comporre un infinito numero de minuetti e trio anche senza sapere il contrapunto
!!!OTA@EN: or the Art of Composing an Infinite Number of Minutes Without the Least Knowledge of Counterpoint
!!!PDT: 1781///
!!!PPR: Artaria
!!!SML: Gesellschaft der Musikfreundes, Vienna
!!!PPR2: Luigi Marescalchi
!!!PPP2: Napoli
!!!PDT2: 1790///
**kern	**kern	**kern
*Icello	*Ivioln	*Ivioln
*>[A,A,B,B,A]	*>[A,A,B,B,A]	*>[A,A,B,B,A]
*>norep[A,B]	*>norep[A,B]	*>norep[A,B]
*>A	*>A	*>A
*k[]	*k[]	*k[]
*M3/4	*M3/4	*M3/4
*MM120	*MM120	*MM120
!!section:  I
!!measure:  A
!!diceroll: 5
=40	=40	=40
4C	12c	2cc
.	12e	.
.	12g	.
4C	12c	.
.	12e	.
.	12g	.
4C	12c	16aa
.	.	16gg
.	12e	.
.	.	16ff#
.	12g	.
.	.	16gg
!!section:  I
!!measure:  B
!!diceroll: 8
=60	=60	=60
4BB	2G	8.g
.	.	16b
4GG	.	8.dd
.	.	16ff
4C	4G	4ee
!!section:  I
!!measure:  C
!!diceroll: 7
=27	=27	=27
4F	2.c	8a
.	.	8aa
4A	.	8ff
.	.	8ee
4F	.	8dd
.	.	8cc
!!section:  I
!!measure:  D
!!diceroll: 9
=50	=50	=50
2G	8f	8b
.	8e	8cc
.	16f	16dd
.	16e	16cc
.	16f	16dd
.	16g	16ee
4C	4e	4cc
!!section:  I
!!measure:  E
!!diceroll: 5
=161	=161	=161
4A	4f#	12cc
.	.	12b
.	.	12cc
4F#	4A	12aa
.	.	12ff#
.	.	12dd
4D	4d	12aa
.	.	12ff#
.	.	12dd
!!section:  I
!!measure:  F
!!diceroll: 8
=133	=133	=133
4B	4g	12dd
.	.	12gg
.	.	12ff#
4r	4r	12ee
.	.	12dd
.	.	12cc
4r	4r	12b
.	.	12a
.	.	12g
!!section:  I
!!measure:  G
!!diceroll: 6
=36	=36	=36
4D	8.cc	8.ee
.	16a	16cc
4E	4g	4b
4DD	4f#	4a
!!section:  I
!!measure:  H
!!diceroll: 8
=127	=127	=127
8G	2.g	2.g
8GG	.	.
8BB	.	.
8D	.	.
4G	.	.
*>B	*>B	*>B
!!section:  II
!!measure:  A
!!diceroll: 7
=138	=138	=138
4r	4r	8g
.	.	8gg
4G	4B-	8ff
.	.	8ee
4G	4B-	8dd
.	.	8cc#
!!section:  II
!!measure:  B
!!diceroll: 9
=88	=88	=88
4F	2.A	8aa
.	.	8dd
4G	.	16cc#
.	.	16dd
.	.	16ee
.	.	16cc#
4F	.	4dd
!!section:  II
!!measure:  C
!!diceroll: 8
=57	=57	=57
4B	4d	4f
4r	4r	16ff
.	.	16ee
.	.	16dd
.	.	16cc
4G	4d	4b
!!section:  II
!!measure:  D
!!diceroll: 11
=164	=164	=164
4E	2g	8.cc
.	.	16g
4D	.	8.f
.	.	16g
4C	4g	4e
!!section:  II
!!measure:  E
!!diceroll: 5
=67	=67	=67
4C	2.cc	2.cc
4G	.	.
4c	.	.
!!section:  II
!!measure:  F
!!diceroll: 8
=168	=168	=168
4E	4c	8gg
.	.	8g
4D	4B	8ff
.	.	8f
4C	4c	4e
!!section:  II
!!measure:  G
!!diceroll: 6
=1	=1	=1
4E	4cc	8gg
.	.	8ee
4F	4a	8dd
.	.	8ff
4G	4f	8b
.	.	8dd
!!section:  II
!!measure:  H
!!diceroll: 9
=111	=111	=111
8C	2.cc	2.cc
8c	.	.
8G	.	.
8E	.	.
4C	.	.
*-	*-	*-
!!!END: 2004/11/01/
